src/24/actions/view-calendar-special-occasion.svg

<svg xmlns="http://www.w3.org/2000/svg" viewBox="0 0 24 24"><path d="M7 4S6 4 6 5H4v15h16V5h-2c0-1-1-1-1-1h-3s-1 0-1 1h-2c0-1-1-1-1-1H7zm0 1h3v1H7V5zm7 0h3v1h-3V5zM5 8h14v11H5V8zm4 4v3h6v-3H9zm-3 1l2 1.5V13H6zm2 1.5L6 16h2v-1.5zm8-1.5v1.5l2-1.5h-2zm0 1.5V16h2l-2-1.5z" fill="currentColor" color="#5d656b"/></svg>

<svg xmlns="http://www.w3.org/2000/svg" viewBox="0 0 24 24">
  <defs id="defs3051">
    <style type="text/css" id="current-color-scheme">
      .ColorScheme-Text {
        color:#5d656b;
      }
      </style>
  </defs>
  <path
     style="fill:currentColor;fill-opacity:1;stroke:none" 
     d="M 7 4 C 7 4 6 3.99997 6 5 L 4 5 L 4 8 L 4 19 L 4 20 L 20 20 L 20 19 L 20 8 L 20 5 L 18 5 C 18 3.99997 17 4 17 4 L 14 4 C 14 4 13 3.99997 13 5 L 11 5 C 11 3.99997 10 4 10 4 L 7 4 z M 7 5 L 10 5 L 10 6 L 7 6 L 7 5 z M 14 5 L 17 5 L 17 6 L 14 6 L 14 5 z M 5 8 L 19 8 L 19 19 L 5 19 L 5 8 z M 9 12 L 9 15 L 15 15 L 15 12 L 9 12 z M 6 13 L 8 14.5 L 8 13 L 6 13 z M 8 14.5 L 6 16 L 8 16 L 8 14.5 z M 16 13 L 16 14.5 L 18 13 L 16 13 z M 16 14.5 L 16 16 L 18 16 L 16 14.5 z "
     class="ColorScheme-Text"
     />
</svg>
